X: 855
T: Sailor's Wife, The
C:Niel Gow
B: jims roots
M:6/8
L:1/8
R: jig
Q: 3/8=100
K:Dm
V:1 
A|:"Dm"DEF E2D | d2e f2g | agf edc | "F"Ac"C"A GEC |
"Dm"DEF E2D | d2e f2g | ag"A7"f ed^c | "Dm"d3 d3 :|
|:"F"fga fga | fga agf | "C"ecg ecg | ef"A7"g gfe |
"Dm"fga agf | "C"efg gfe | "Dm"de"A7"f ed^c | "Dm"d3 d3 :|
% abcbook-tune_id 6298c2875d7da77796ea2d4c


% abcbook-boost 0
% abcbook-tablature 
% abcbook-transpose 
% abcbook-lastupdated 1654178439980
% abcbook-soundfonts 
% abcbook-repeats 1


